X: 593
T: Nao wugeng
%%abc-version 2.0
%%abcx-abcm2ps-target-version 5.9.1 (29 Sep 2008)
%%abc-creator hum2abc beta
%%abcx-conversion-date 2013/10/02 07:52:30
%%abc-edited-by Helmut Schaffrath
%%humdrum-veritas 2814576495
%%humdrum-veritas-data 1139294470
%%continueall 1
%%barnumbers 0
L: 1/8
M: 2/4
K: G
G A B G [I:setbarnb 1]| 
A2A2 | 
B2B2 | 
A B A G | 
E4 | 
GG2A | 
B d B A | 
B d A G | 
E4 | 
A GE2 | 
G2B A | 
G B A G | 
AD2E | 
G G A E | 
D4 |]  



